X: 43
M: 4/4
L: 1/8
K: D
.D>F[AD]>B [A2D2][f2A2] | D>FA>B [A2D2][a2A2] | ^/g2f2 e2d2 | c>dc>B A2G2 |
e2e2 a2a2 | c>Ac>d e4 | B2e2 c2e2 | B2e>f e>dc>d |
e2e2 a2a2 | c>Ac>d e4 | e2^gf edcB | A4- [A2F2]"D.C."z2 |]


